IMB-X-Files/The-Ambassadors-Assets/65f43207d48584352641670d_chili.svg

<svg fill="none" height="40" viewBox="0 0 141 40" width="141" xmlns="http://www.w3.org/2000/svg"><path clip-rule="evenodd" d="m17.0057 29.7107c1.8117 1.2724 3.7296 2.4027 5.7405 3.371-6.564 3.0016-12.5444 3.2928-14.49267 3.3003l-.19747-.0002c-.30159-.0018-.46403-.0101-.46622-.0101 3.49076-1.7121 6.66566-3.9701 9.41586-6.661zm7.1766-9.8752c.6451.4462 1.3087.8673 1.9923 1.2604-2.4369 4.6421-5.1114 7.4433-5.1114 7.4433 2.555-2.1039 4.6017-4.5265 6.2051-6.8469 2.2975 1.1901 4.7756 2.0786 7.3837 2.6086-2.5882 2.8835-5.6277 5.3513-9.0083 7.2892-2.4237-1.0147-4.7199-2.2739-6.8595-3.7455 2.1343-2.4054 3.9554-5.0964 5.3981-8.0091zm27.7292-2.819c1.8226 0 3.1978.7155 4.2336 1.6288l-1.5137 2.4504c-.6177-.456-1.3446-1.0037-2.5495-1.0037-1.4524 0-2.3164 1.0496-2.3178 2.2512 0 1.2016.8654 2.2525 2.3178 2.2525 1.2049 0 1.9318-.5477 2.5495-1.005l1.5137 2.4504c-1.0358.9133-2.411 1.6287-4.2336 1.6287-3.2284 0-5.654-2.297-5.654-5.3266 0-3.0283 2.4256-5.3267 5.654-5.3267zm8.8195 0v3.7593h3.7581v-3.7593h3.445v10.6533h-3.445v-3.9171h-3.7581v3.9171h-3.4451v-10.6533zm12.5272 0v10.6533h-3.4226v-10.6533zm5.361 0v7.6764h4.9069v2.9769h-8.3664v-10.6533zm9.4704 0v10.6533h-3.4227v-10.6533zm10.8902 0c2.1312 0 3.9412 1.2855 3.9412 4.0574 0 2.5075-1.81 3.9953-3.9412 3.9953h-2.1931v2.6006h-3.373v-10.6533zm8.5042 0v10.6533h-3.422v-10.6533zm7.469 0c2.131 0 3.94 1.2855 3.94 4.0574 0 2.5075-1.809 3.9953-3.94 3.9953h-2.194v2.6006h-3.373v-10.6533zm13.828 0v2.977h-5.479v.9401h4.343v2.7409h-4.343v1.0184h5.479v2.9769h-8.747v-10.6533zm7.524 0c2.118 0 3.703 1.2234 3.703 3.6352 0 1.338-.732 2.4104-1.876 2.9595l-.105.0485 2.543 3.2265v.7836h-3.352l-2.635-3.6648h-.549v3.6648h-3.352v-10.6533zm-108.8642-7.23691c5.0769.01993 9.7994 1.54071 13.7495 4.14401-1.2265 2.9619-2.8325 5.7246-4.7571 8.2309-2.7833-.421-5.422-1.2817-7.8429-2.509 2.4039-3.9748 3.4398-7.216 3.4663-7.2995l.0006-.0016-2.5232-.599c-.519 2.6298-1.3525 5.0392-2.2989 7.163-.6995-.4091-1.3791-.8488-2.0347-1.3176 1.0233-2.4784 1.7825-5.0924 2.2404-7.81121zm71.0026 10.21391h-1.6554v2.0988h1.6554c.5827 0 .9962-.4546.9975-1.0494 0-.58-.4148-1.0494-.9975-1.0494zm15.9726 0h-1.657v2.0988h1.657c.583 0 .997-.4546.997-1.0494 0-.58-.414-1.0494-.997-1.0494zm21.325 0h-1.707v1.6294h1.707c.579 0 .823-.4236.822-.8147 0-.3764-.243-.8147-.822-.8147zm-97.7615-19.9935s2.0427 4.16526-.2827 8.55101c0 0 1.5984 1.04453 1.914 1.71899l.0239.0568-.2416.7425c-2.3061-1.16468-4.8036-2.00488-7.4329-2.46215l-.3437-.05747.1978-.76373s1.6909-.28158 2.9598 0c0 0 1.8174-1.37497 1.8997-5.92091l.0023-.18353z" fill="#090a0b" fill-rule="evenodd"/></svg>

<svg width="141" height="40" viewBox="0 0 141 40" fill="none" xmlns="http://www.w3.org/2000/svg">
<path fill-rule="evenodd" clip-rule="evenodd" d="M17.0057 29.7107C18.8174 30.9831 20.7353 32.1134 22.7462 33.0817C16.1822 36.0833 10.2018 36.3745 8.25353 36.382L8.05606 36.3818C7.75447 36.38 7.59203 36.3717 7.58984 36.3717C11.0806 34.6596 14.2555 32.4016 17.0057 29.7107ZM24.1823 19.8355C24.8274 20.2817 25.491 20.7028 26.1746 21.0959C23.7377 25.738 21.0632 28.5392 21.0632 28.5392C23.6182 26.4353 25.6649 24.0127 27.2683 21.6923C29.5658 22.8824 32.0439 23.7709 34.652 24.3009C32.0638 27.1844 29.0243 29.6522 25.6437 31.5901C23.22 30.5754 20.9238 29.3162 18.7842 27.8446C20.9185 25.4392 22.7396 22.7482 24.1823 19.8355ZM51.9115 17.0165C53.7341 17.0165 55.1093 17.732 56.1451 18.6453L54.6314 21.0957C54.0137 20.6397 53.2868 20.092 52.0819 20.092C50.6295 20.092 49.7655 21.1416 49.7641 22.3432C49.7641 23.5448 50.6295 24.5957 52.0819 24.5957C53.2868 24.5957 54.0137 24.048 54.6314 23.5907L56.1451 26.0411C55.1093 26.9544 53.7341 27.6698 51.9115 27.6698C48.6831 27.6698 46.2575 25.3728 46.2575 22.3432C46.2575 19.3149 48.6831 17.0165 51.9115 17.0165ZM60.731 17.0165V20.7758H64.4891V17.0165H67.9341V27.6698H64.4891V23.7527H60.731V27.6698H57.2859V17.0165H60.731ZM73.2582 17.0165V27.6698H69.8356V17.0165H73.2582ZM78.6192 17.0165V24.6929H83.5261V27.6698H75.1597V17.0165H78.6192ZM88.0896 17.0165V27.6698H84.6669V17.0165H88.0896ZM98.9798 17.0165C101.111 17.0165 102.921 18.302 102.921 21.0739C102.921 23.5814 101.111 25.0692 98.9798 25.0692H96.7867V27.6698H93.4137V17.0165H98.9798ZM107.484 17.0165V27.6698H104.062V17.0165H107.484ZM114.953 17.0165C117.084 17.0165 118.893 18.302 118.893 21.0739C118.893 23.5814 117.084 25.0692 114.953 25.0692H112.759V27.6698H109.386V17.0165H114.953ZM128.781 17.0165V19.9935H123.302V20.9336H127.645V23.6745H123.302V24.6929H128.781V27.6698H120.034V17.0165H128.781ZM136.305 17.0165C138.423 17.0165 140.008 18.2399 140.008 20.6517C140.008 21.9897 139.276 23.0621 138.132 23.6112L138.027 23.6597L140.57 26.8862V27.6698H137.218L134.583 24.005H134.034V27.6698H130.682V17.0165H136.305ZM27.4408 9.77959C32.5177 9.79952 37.2402 11.3203 41.1903 13.9236C39.9638 16.8855 38.3578 19.6482 36.4332 22.1545C33.6499 21.7335 31.0112 20.8728 28.5903 19.6455C30.9942 15.6707 32.0301 12.4295 32.0566 12.346L32.0572 12.3444L29.534 11.7454C29.015 14.3752 28.1815 16.7846 27.2351 18.9084C26.5356 18.4993 25.856 18.0596 25.2004 17.5908C26.2237 15.1124 26.9829 12.4984 27.4408 9.77959ZM98.4434 19.9935H96.788V22.0923H98.4434C99.0261 22.0923 99.4396 21.6377 99.4409 21.0429C99.4409 20.4629 99.0261 19.9935 98.4434 19.9935ZM114.416 19.9935H112.759V22.0923H114.416C114.999 22.0923 115.413 21.6377 115.413 21.0429C115.413 20.4629 114.999 19.9935 114.416 19.9935ZM135.741 19.9935H134.034V21.6229H135.741C136.32 21.6229 136.564 21.1993 136.563 20.8082C136.563 20.4318 136.32 19.9935 135.741 19.9935ZM37.9795 0C37.9795 0 40.0222 4.16526 37.6968 8.55101C37.6968 8.55101 39.2952 9.59554 39.6108 10.27L39.6347 10.3268L39.3931 11.0693C37.087 9.90462 34.5895 9.06442 31.9602 8.60715L31.6165 8.54968L31.8143 7.78595C31.8143 7.78595 33.5052 7.50437 34.7741 7.78595C34.7741 7.78595 36.5915 6.41098 36.6738 1.86504L36.6761 1.68151L37.9795 0Z" fill="#090A0B"/>
</svg>
